src/images/icons/orange-icon.svg

<svg fill="none" height="12" viewBox="0 0 93 12" width="93" xmlns="http://www.w3.org/2000/svg"><g fill="#200e32"><path d="m22.7759 6.63438c0 1.23819-.4519 2.26341-1.3581 3.07147-.9061.80805-2.0834 1.21315-3.5294 1.21315-1.4365 0-2.6042-.4051-3.5032-1.21315-.8966-.80806-1.3461-1.83328-1.3461-3.07147v-1.81657c0-1.23402.4471-2.25714 1.3413-3.0673.8943-.810144 2.062-1.217307 3.4985-1.217307 1.4484 0 2.6257.405075 3.5342 1.217307.9085.81225 1.3628 1.83328 1.3628 3.0673zm-2.3403-1.82492c0-.78718-.2283-1.43238-.6802-1.93768s-1.0797-.75795-1.8765-.75795c-.7967 0-1.4127.25056-1.8503.75378-.4376.50321-.6564 1.15049-.6564 1.94185v1.83327c0 .8018.2212 1.45326.6659 1.95856.4424.5053 1.0607.75795 1.8503.75795.8015 0 1.427-.25265 1.8765-.75795s.6731-1.15676.6731-1.95856v-1.83327z"/><path d="m26.8783 6.73886v4.03404h-2.3402v-10.093457h4.3999c1.3294 0 2.3711.26309 3.1227.787177.7515.5241 1.1249 1.25699 1.1249 2.19451 0 .522-.157.97092-.4733 1.34468-.3163.37375-.7777.67652-1.3865.90828.6897.1754 1.1844.46981 1.4864.88115.3021.41134.4519.92081.4519 1.52425v.74124c0 .28188.0452.57629.1332.88323s.2378.53454.4519.68274v.1462h-2.4116c-.2141-.1482-.352-.3946-.4163-.7412-.0642-.34665-.0951-.67447-.0951-.9835v-.7141c0-.50321-.1593-.89576-.4756-1.17555-.3187-.27979-.7659-.41969-1.3414-.41969zm0-1.55975h2.0192c.6564 0 1.1464-.1211 1.4698-.36122.3235-.24012.4852-.59717.4852-1.06698 0-.46145-.1617-.82894-.4852-1.10247-.3234-.27353-.7991-.40925-1.4317-.40925h-2.0596v2.93992z"/><path d="m41.4833 8.59632h-4.0954l-.7944 2.17778h-2.364l4.0146-10.093436h2.3973l4.0003 10.093436h-2.364zm-3.5175-1.58689h2.942l-1.4437-3.96514h-.0475z"/><path d="m55.0022 10.7729h-2.3331l-4.7115-6.89879-.0475.00626v6.89043h-2.3403v-10.091357h2.3403l4.7114 6.890447.0476-.00626v-6.884187h2.3331z"/><path d="m66.082 9.39338c-.3472.39672-.8894.75172-1.622 1.06072-.7349.309-1.6624.4635-2.785.4635-1.4269 0-2.5923-.3842-3.4937-1.15047-.9037-.7663-1.3556-1.76228-1.3556-2.98795v-2.1068c0-1.2194.4352-2.21538 1.3033-2.98377.8681-.77048 1.9859-1.154674 3.3534-1.154674 1.4222 0 2.5091.298585 3.2654.897844.7563.59926 1.1416 1.38644 1.1582 2.36155l-.0166.04176h-2.2047c-.0428-.53662-.2402-.96049-.5922-1.2716-.352-.31112-.8681-.46772-1.5459-.46772-.7159 0-1.2938.23803-1.7314.71619-.4376.47815-.6564 1.09203-.6564 1.8458v2.11934c0 .7663.2259 1.38852.6802 1.86668.4543.47815 1.0655.71619 1.836.71619.5447 0 .9823-.04803 1.3152-.14616.3306-.09605.5827-.21716.754-.35914v-1.86669h-2.0668v-1.40105h4.407v3.80645z"/><path d="m75.2038 6.33587h-4.8328v2.87729h5.6509v1.55974h-7.9911v-10.093457h7.9744v1.559747h-5.6342v2.53694h4.8328z"/><path d="m83.1177 4.82198v-4.155232h1.4959c.6374 0 1.1511.167044 1.5364.501132.3853.33409.5803.76632.5803 1.2946v.56795c0 .53036-.1926.96259-.5803 1.29459-.3853.332-.899.49904-1.5364.49904h-1.4959zm.6611-3.71256v3.27198h.8372c.4519 0 .8063-.12737 1.0655-.38003.2592-.25265.39-.5763.39-.97303v-.57422c0-.39255-.1308-.71411-.39-.96677-.2592-.25265-.616-.38002-1.0655-.38002h-.8372z"/><path d="m88.3834.666748 1.553 3.376382h.019l1.553-3.376382h.8443v4.157312h-.6588v-1.64538l.0666-1.68924-.0166-.00209-1.5816 3.33671h-.4376l-1.5744-3.32835-.0167.00208.0642 1.68089v1.64538h-.6587v-4.157312z"/></g><path d="m10.3963 10.6008v-10.181122l-7.32989 2.223732z" fill="#eb6309"/><path d="m9.33107 11.0696-6.39764-6.08449-2.93245344 4.79825z" fill="#eb6309"/><path d="m79.9122.00219727h-.4757v11.69290273h.4757z" fill="#200e32"/></svg>

<svg width="93" height="12" viewBox="0 0 93 12" fill="none" xmlns="http://www.w3.org/2000/svg">
<path d="M22.7759 6.63438C22.7759 7.87257 22.324 8.89779 21.4178 9.70585C20.5117 10.5139 19.3344 10.919 17.8884 10.919C16.4519 10.919 15.2842 10.5139 14.3852 9.70585C13.4886 8.89779 13.0391 7.87257 13.0391 6.63438V4.81781C13.0391 3.58379 13.4862 2.56067 14.3804 1.75051C15.2747 0.940366 16.4424 0.533203 17.8789 0.533203C19.3273 0.533203 20.5046 0.938278 21.4131 1.75051C22.3216 2.56276 22.7759 3.58379 22.7759 4.81781V6.63438ZM20.4356 4.80946C20.4356 4.02228 20.2073 3.37708 19.7554 2.87178C19.3035 2.36648 18.6757 2.11383 17.8789 2.11383C17.0822 2.11383 16.4662 2.36439 16.0286 2.86761C15.591 3.37082 15.3722 4.0181 15.3722 4.80946V6.64273C15.3722 7.44453 15.5934 8.09599 16.0381 8.60129C16.4805 9.10659 17.0988 9.35924 17.8884 9.35924C18.6899 9.35924 19.3154 9.10659 19.7649 8.60129C20.2144 8.09599 20.438 7.44453 20.438 6.64273V4.80946H20.4356Z" fill="#200E32"/>
<path d="M26.8783 6.73886V10.7729H24.5381V0.679443H28.938C30.2674 0.679443 31.3091 0.942533 32.0607 1.46662C32.8122 1.99072 33.1856 2.72361 33.1856 3.66113C33.1856 4.18313 33.0286 4.63205 32.7123 5.00581C32.396 5.37956 31.9346 5.68233 31.3258 5.91409C32.0155 6.08949 32.5102 6.3839 32.8122 6.79524C33.1143 7.20658 33.2641 7.71605 33.2641 8.31949V9.06073C33.2641 9.34261 33.3093 9.63702 33.3973 9.94396C33.4853 10.2509 33.6351 10.4785 33.8492 10.6267V10.7729H31.4376C31.2235 10.6247 31.0856 10.3783 31.0213 10.0317C30.9571 9.68505 30.9262 9.35723 30.9262 9.0482V8.3341C30.9262 7.83089 30.7669 7.43834 30.4506 7.15855C30.1319 6.87876 29.6847 6.73886 29.1092 6.73886H26.8783ZM26.8783 5.17911H28.8975C29.5539 5.17911 30.0439 5.05801 30.3673 4.81789C30.6908 4.57777 30.8525 4.22072 30.8525 3.75091C30.8525 3.28946 30.6908 2.92197 30.3673 2.64844C30.0439 2.37491 29.5682 2.23919 28.9356 2.23919H26.876V5.17911H26.8783Z" fill="#200E32"/>
<path d="M41.4833 8.59632H37.3879L36.5935 10.7741H34.2295L38.2441 0.680664H40.6414L44.6417 10.7741H42.2777L41.4833 8.59632ZM37.9658 7.00943H40.9078L39.4641 3.04429H39.4166L37.9658 7.00943Z" fill="#200E32"/>
<path d="M55.0022 10.7729H52.6691L47.9576 3.87411L47.9101 3.88037V10.7708H45.5698V0.679443H47.9101L52.6215 7.56989L52.6691 7.56363V0.679443H55.0022V10.7729Z" fill="#200E32"/>
<path d="M66.082 9.39338C65.7348 9.7901 65.1926 10.1451 64.46 10.4541C63.7251 10.7631 62.7976 10.9176 61.675 10.9176C60.2481 10.9176 59.0827 10.5334 58.1813 9.76713C57.2776 9.00083 56.8257 8.00485 56.8257 6.77918V4.67238C56.8257 3.45298 57.2609 2.457 58.129 1.68861C58.9971 0.91813 60.1149 0.533936 61.4824 0.533936C62.9046 0.533936 63.9915 0.832521 64.7478 1.43178C65.5041 2.03104 65.8894 2.81822 65.906 3.79333L65.8894 3.83509H63.6847C63.6419 3.29847 63.4445 2.8746 63.0925 2.56349C62.7405 2.25237 62.2244 2.09577 61.5466 2.09577C60.8307 2.09577 60.2528 2.3338 59.8152 2.81196C59.3776 3.29011 59.1588 3.90399 59.1588 4.65776V6.7771C59.1588 7.5434 59.3847 8.16562 59.839 8.64378C60.2933 9.12193 60.9045 9.35997 61.675 9.35997C62.2197 9.35997 62.6573 9.31194 62.9902 9.21381C63.3208 9.11776 63.5729 8.99665 63.7442 8.85467V6.98798H61.6774V5.58693H66.0844V9.39338H66.082Z" fill="#200E32"/>
<path d="M75.2038 6.33587H70.371V9.21316H76.0219V10.7729H68.0308V0.679443H76.0052V2.23919H70.371V4.77613H75.2038V6.33587Z" fill="#200E32"/>
<path d="M83.1177 4.82198V0.666748H84.6136C85.251 0.666748 85.7647 0.833792 86.15 1.16788C86.5353 1.50197 86.7303 1.9342 86.7303 2.46248V3.03043C86.7303 3.56079 86.5377 3.99302 86.15 4.32502C85.7647 4.65702 85.251 4.82406 84.6136 4.82406H83.1177V4.82198ZM83.7788 1.10942V4.3814H84.616C85.0679 4.3814 85.4223 4.25403 85.6815 4.00137C85.9407 3.74872 86.0715 3.42507 86.0715 3.02834V2.45412C86.0715 2.06157 85.9407 1.74001 85.6815 1.48735C85.4223 1.2347 85.0655 1.10733 84.616 1.10733H83.7788V1.10942Z" fill="#200E32"/>
<path d="M88.3834 0.666748L89.9364 4.04313H89.9554L91.5084 0.666748H92.3527V4.82406H91.6939V3.17868L91.7605 1.48944L91.7439 1.48735L90.1623 4.82406H89.7247L88.1503 1.49571L88.1336 1.49779L88.1978 3.17868V4.82406H87.5391V0.666748H88.3834Z" fill="#200E32"/>
<path d="M10.3963 10.6008V0.419678L3.06641 2.64341L10.3963 10.6008Z" fill="#EB6309"/>
<path d="M9.33107 11.0696L2.93343 4.98511L0.000976562 9.78336L9.33107 11.0696Z" fill="#EB6309"/>
<path d="M79.9122 0.00219727H79.4365V11.6951H79.9122V0.00219727Z" fill="#200E32"/>
</svg>
